!!!!SEGMENT: Mou3003-Lort_vilain_jaloux--Bologna_Q19.krn
!!!id: Mou3003
!!!AGN: Chanson
!!!SCT: MacCracken (2014)
!!!voices: 4
!!!COM: Jean Mouton
!!!OTL: L'ort vilain jaloux (Bologna Q19)
**kern	**kern	**kern	**kern
*part4	*part3	*part2	*part1
*staff4	*staff3	*staff2	*staff1
*I"Bassus	*I"Tenor	*I"Altus	*I"Superius
*I'B	*I'T	*I'A	*I'S
*clefF4	*clefGv2	*clefGv2	*clefG2
*k[b-]	*k[b-]	*k[b-]	*k[b-]
*F:	*F:	*F:	*F:
*M2/1	*M2/1	*M2/1	*M2/1
*met(C|)	*met(C|)	*met(C|)	*met(C|)
1.D	0r	0r	0r
2E	.	.	.
=1	=1	=1	=1
1F	1r	0r	0r
2G	[1D	.	.
[2B-y	.	.	.
=2	=2	=2	=2
2B-]	2D]	0r	0r
4A	2E	.	.
4G	.	.	.
1A	1F	.	.
=3	=3	=3	=3
1.G	2G	0r	1.d
.	1B-y	.	.
4F	4A	.	2e
4E	4G	.	.
=4	=4	=4	=4
1D	1A	1r	1f
1r	[1G	[1d	2g
.	.	.	[2b-y
=5	=5	=5	=5
0r	1G]	2d]	2b-]
.	.	2e	4a
.	.	.	4g
.	1r	1f	1a
=6	=6	=6	=6
1G	1B-y	1g	0g
2G	2B-y	[1d	.
2G	2B-y	.	.
=7	=7	=7	=7
2G	1.B-y	1d]	0r
2G	.	.	.
2D	.	1r	.
[2G	2B-y	.	.
=8	=8	=8	=8
2G]	1A	1r	1r
2F#i	.	.	.
[1G	[1G	1d	1b-y
=9	=9	=9	=9
1G]	1G]	2d	2b-y
.	.	2d	2b-y
1r	1r	2d	[1b-y
.	.	2e	.
=10	=10	=10	=10
0r	0r	2d	2b-]
.	.	1g	2b-y
.	.	.	1a
.	.	2f#i	.
=11	=11	=11	=11
1r	0r	2g	0g
.	.	2G	.
1G	.	2.B-y	.
.	.	4c	.
=12	=12	=12	=12
2F	0r	2d	0r
2.G	.	2.e	.
4F	.	4d	.
2D	.	[2d	.
=13	=13	=13	=13
1E	0r	2d]	1g
.	.	2c#i	.
2D	.	1d	2f
[2GG	.	.	[2g
=14	=14	=14	=14
4GG]	1G	2r	4g]
4AA	.	.	4f
4BB-y	.	1B-y	4e
4C	.	.	4d
2D	2F	.	2f
2C	[2G	2c	[2e
=15	=15	=15	=15
1BB-y	4G]	2d	2e]
.	4F	.	.
.	2D	2G	1d
1AA	1E	[1A	.
.	.	.	2c#i
=16	=16	=16	=16
1r	0D	2A]	1d
.	.	2B-y	.
[1D	.	2A	1r
.	.	[2B-y	.
=17	=17	=17	=17
2D]	0r	2B-]	0r
2E	.	4A	.
.	.	4G	.
1F	.	1A	.
=18	=18	=18	=18
2G	0r	0G	1.d
1B-y	.	.	.
4A	.	.	2e
4G	.	.	.
=19	=19	=19	=19
1A	0r	0r	1f
[1G	.	.	2g
.	.	.	[2b-y
=20	=20	=20	=20
1G]	0r	1.d	2b-]
.	.	.	4a
.	.	.	4g
1D	.	.	1a
.	.	2d	.
=21	=21	=21	=21
2r	1.D	0d	2.d
1D	.	.	.
.	.	.	4e
.	.	.	2f
4C	2E	.	2g
4BB-y	.	.	.
=22	=22	=22	=22
1AA	1F	1c	2a
.	.	.	2cc
1GG	2G	2r	2b-y
.	[2B-y	[2d	4a
.	.	.	4g
=23	=23	=23	=23
2D	2B-]	2d]	2f
2E	4A	2c	1g
.	4G	.	.
1D	1A	[1d	.
.	.	.	2f#i
=24	=24	=24	=24
1GG	0G	2d]	0g
.	.	1B-y	.
1r	.	.	.
.	.	4A	.
.	.	4G	.
=25	=25	=25	=25
1BB-y	0d	0F	1r
2BB-y	.	.	1b-y
2BB-y	.	.	.
=26	=26	=26	=26
1.BB-y	2d	1f	2b-y
.	2d	.	2b-y
.	[1d	2f	[1b-y
2BB-y	.	2f	.
=27	=27	=27	=27
2BB-y	2d]	1.f	2b-]
2BB-y	2d	.	2b-y
4BB-y	2d	.	2b-y
4C	.	.	.
4D	2d	2f	2b-y
4E	.	.	.
=28	=28	=28	=28
1F	0c	2f	1a
.	.	2f	.
1C	.	1e	[1g
=29	=29	=29	=29
1G	1B-y	0d	1g]
2F	2A	.	2r
[2G	[2B-y	.	2b-y
=30	=30	=30	=30
4G]	4B-]	2r	2b-y
4F	4c	.	.
2D	2d	1d	2a
1E	2B-y	.	1g
.	4A	2c	.
.	4G	.	.
=31	=31	=31	=31
1D	4A	2.d	0f
.	4G	.	.
.	4F	.	.
.	4E	4c	.
2r	1D	2A	.
2D	.	2B-y	.
=32	=32	=32	=32
2C	0r	2A	0r
2.D	.	2.B-y	.
8CL	.	4A	.
8BB-yJ	.	.	.
2AA	.	[2A	.
=33	=33	=33	=33
1BB-y	0r	2A]	0r
.	.	2G	.
2.AA	.	4A	.
.	.	4B-y	.
.	.	4c	.
4BB-y	.	4d	.
=34	=34	=34	=34
1C	0r	4e	1g
.	.	4f	.
.	.	4g	.
.	.	4e	.
2D	.	2f	2f
2C	.	[2e	[2g
=35	=35	=35	=35
1BB-y	0r	2e]	4g]
.	.	.	4f
.	.	1d	2d
1AA	.	.	1e
.	.	2c#i	.
=36	=36	=36	=36
2r	1.D	1.d	1d
1BB-y	.	.	.
.	.	.	1r
2C	2E	4c	.
.	.	4B-y	.
=37	=37	=37	=37
1D	1F	1.A	1d
2r	2G	.	2e
[2GG	[2B-y	2G	[2d
=38	=38	=38	=38
4GG]	2B-]	0r	2d]
4AA	.	.	.
2BB-y	4A	.	1g
.	4G	.	.
2C	1A	.	.
2D	.	.	2f#i
=39	=39	=39	=39
1GG	0G	1B-y	0g
2r	.	2B-y	.
2GG	.	2B-y	.
=40	=40	=40	=40
2GG	0r	1.B-y	0r
2GG	.	.	.
4GG	.	.	.
4AA	.	.	.
4BB-y	.	2B-y	.
4C	.	.	.
=41	=41	=41	=41
2D	0r	1.B-y	0r
2E	.	.	.
2D	.	.	.
(2G	.	2B-y	.
=42	=42	=42	=42
2G)	1r	1A	1r
2F#i	.	.	.
[1G	1d	2G	1b-y
.	.	[2g	.
=43	=43	=43	=43
1G]	2d	2g]	2b-y
.	2d	2g	2b-y
2G	[1d	2g	[1b-y
2G	.	2g	.
=44	=44	=44	=44
2G	2d]	1d	2b-]
2G	2d	.	2b-y
1D	2d	1r	2b-y
.	2d	.	2b-y
=45	=45	=45	=45
2F	1c	0r	1a
2F	.	.	.
2E	1c	.	1g
2E	.	.	.
=46	=46	=46	=46
1D	2d	2f	2f
.	2d	2f	2f
1G	2B-y	2e	2g
.	2B-y	2e	2g
=47	=47	=47	=47
2F	2A	2d	1d
2.G	2.B-y	4g	.
.	.	4f	.
.	.	4e	1r
4F	4A	4d	.
2D	[2A	[2d	.
=48	=48	=48	=48
1E	2A]	2d]	0r
.	2G	2c#i	.
2D	2A	1d	.
2BB-y	2d	.	.
=49	=49	=49	=49
2BB-y	2d	1r	1b-y
2BB-y	2d	.	.
[1BB-y	[1d	1f	2b-y
.	.	.	2b-y
=50	=50	=50	=50
2BB-]	2d]	2f	1.b-y
2BB-y	2d	2f	.
2BB-y	2d	[1f	.
2BB-y	2d	.	2b-y
=51	=51	=51	=51
4BB-y	1d	2f]	2b-y
4C	.	.	.
4D	.	2f	2b-y
4E	.	.	.
1F	[1c	2f	1a
.	.	2f	.
=52	=52	=52	=52
1C	1c]	1e	0g
[1G	1r	2d	.
.	.	[2B-y	.
=53	=53	=53	=53
1G]	0r	4B-]	0r
.	.	4c	.
.	.	4d	.
.	.	4e	.
2F	.	2f	.
[2G	.	[2e	.
=54	=54	=54	=54
4G]	0r	2e]	1r
4F	.	.	.
2D	.	1d	.
1E	.	.	1g
.	.	2c#i	.
=55	=55	=55	=55
2D	1r	1d	2f
2.GG	.	.	2.g
.	1G	2r	.
4AA	.	.	4f
4BB-y	.	[2B-y	4d
4C	.	.	4e
=56	=56	=56	=56
2D	2F	2B-]	2f
2C	2.G	2c	1e
1BB-y	.	2d	.
.	4F	.	.
.	2D	2G	[2d
=57	=57	=57	=57
1AA	1E	1.A	2d]
.	.	.	2c#i
1r	1D	.	[1d
.	.	2B-y	.
=58	=58	=58	=58
1.D	0r	2A	1d]
.	.	1B-y	.
.	.	.	1r
2E	.	4A	.
.	.	4G	.
=59	=59	=59	=59
1F	0r	1A	1r
2G	.	[1G	[1d
[2B-y	.	.	.
=60	=60	=60	=60
2B-]	0r	1G]	2d]
4A	.	.	2e
4G	.	.	.
1A	.	1r	1f
=61	=61	=61	=61
0G	0r	1.d	2g
.	.	.	1b-y
.	.	2d	4a
.	.	.	4g
=62	=62	=62	=62
2r	1.D	1d	1a
1D	.	.	.
.	.	1d	2d
4C	2E	.	2g
4BB-y	.	.	.
=63	=63	=63	=63
1AA	1F	1c	2a
.	.	.	2cc
1GG	2G	2r	2b-y
.	[2B-y	[2d	4a
.	.	.	4g
=64	=64	=64	=64
2D	2B-]	2d]	2f
2E	4A	2c	1g
.	4G	.	.
1D	1A	[1d	.
.	.	.	2f#i
=65	=65	=65	=65
[0GGl	[0Gl	2d]	[0gl
.	.	1B-y	.
.	.	4A	.
.	.	4G	.
=66	=66	=66	=66
00GG]	00G]	00dl	00g]
==	==	==	==
*-	*-	*-	*-
!!!system-decoration: [*]
!!!RDF**kern: i = editorial accidental
!!!RDF**kern: l = terminal long
!!!ENC: Benjamin Ory
!!!END: 2021/1/6
!!!EED: Benjamin Ory
!!!EEV: 2021/05/02
!!!YEC: Copyright 2021 Benjamin Ory, All Rights Reserved
!!!ONB: Translated from MusicXML on 2021/05/02
